!!!!SEGMENT: pl-gd--ee-1638--006-029_marenzio-luca--il-quinto-libro-de-madrigalia-a-cinque-voci-o-fera-voglia.krn
!!!cenid: 15xx:911
!!!COM: Marenzio, Luca
!!!COM-rismID:
!!!CDT: ~1553-1599/08/22
!!!CNT: Italian
!!!GTL: Il Quinto libro de madrigalia a cinque voci
!!!OTL: O fera voglia
!!!OMV: 029
!!!PDT: 1585
!!!AGN:
!!!SMS-siglum: PL-GD
!!!SMS-shelfmark: Ee 1638
!!!SMS-variant:
!!!SMS-shelfwork: 006-029 G
!!!NIFC-rismSourceID: 990039296
!!!NIFC-islandoraID: pl-gd:57883
!!!URL-pdf-islandora: https://repozytorium.nifc.pl/islandora/object/pl-gd%3A57883/datastream/PDF/view
!!!URL-scan: https://polish.musicsources.pl/pl/lokalizacje/galeria/klocki-introligatorskie/655 @EN{Scan on Polish Music Herritage in Open Access Website} @PL{Skany w portalu Dziedzictwo Muzyki Polskiej w otwartym dostępie}
!!!ONB-nifc:
!!!AIN: 1 alto 1 bass 1 soprn 2 tenor
!!!key: e:phr
**kern	**text	**kern	**text	**kern	**text	**kern	**text	**kern	**text
*part5	*part5	*part4	*part4	*part3	*part3	*part2	*part2	*part1	*part1
*staff5	*staff5	*staff4	*staff4	*staff3	*staff3	*staff2	*staff2	*staff1	*staff1
*I"Quinto	*	*I"Basso	*	*I"Tenore	*	*I"Alto	*	*I"Canto	*
*I'Q	*	*I'B	*	*I'T	*	*I'A	*	*I'C	*
*Itenor	*	*Ibass	*	*Itenor	*	*Ialto	*	*Isoprn	*
*ICvox	*	*ICvox	*	*ICvox	*	*ICvox	*	*Cvox	*
*clefC4	*	*clefF4	*	*clefC4	*	*clefC3	*	*clefC1	*
*k[b-e-a-]	*	*k[b-e-a-]	*	*k[b-e-a-]	*	*k[b-e-a-]	*	*k[b-e-a-]	*
*e:phr	*	*e:phr	*	*e:phr	*	*e:phr	*	*e:phr	*
*M2/1	*	*M2/1	*	*M2/1	*	*M2/1	*	*M2/1	*
=1-	=1-	=1-	=1-	=1-	=1-	=1-	=1-	=1-	=1-
!	!	!	!	!	!	!	!	!LO:TX:a:B:t=Prestissimo	!
!LO:TX:t=P:problem: strona 84.	!	!	!	!	!	!	!	!	!
!	!	!LO:TX:t=P:problem: strona 236	!	!	!	!	!	!	!
!	!	!	!	!LO:TX:t=P:problem: strona 388	!	!	!	!	!
!	!	!	!	!	!	!LO:TX:t=P:problem: strona 540	!	!	!
!	!	!	!	!	!	!	!	!LO:TX:t=P:problem: strona 692	!
2.G/	O	1r	.	0r	.	2r	.	0r	.
.	.	.	.	.	.	1d	O	.	.
4A-/	.	.	.	.	.	.	.	.	.
2B-\	.	0G	O	.	.	.	.	.	.
1c\	fe-	.	.	.	.	1e-\	Fe-	.	.
=2-	=2-	=2-	=2-	=2-	=2-	=2-	=2-	=2-	=2-
.	.	.	.	2.G/	O	.	-ra	2r	.
2B-\	-ra	.	.	.	.	2d\	vo-	1g	O
.	.	.	.	4A-/	.	.	.	.	.
1e-	vo-	0E-	fe-	2B-\	.	4g\	.	.	.
.	.	.	.	.	.	4f\	.	.	.
.	.	.	.	1c\	Fe-	4e-\	.	1a-X\	fe-
.	.	.	.	.	.	4d\	.	.	.
=3-	=3-	=3-	=3-	=3-	=3-	=3-	=3-	=3-	=3-
1e-	-glia	.	.	.	.	4c\	.	.	.
.	.	.	.	.	.	4d\	.	.	.
.	.	.	.	2B-\	-ra	2e-\	.	2g/	-ra
*	*	*	*	*lig	*	*	*	*	*
1r	.	1BB-	-ra	1B-	vo-	2d\	-glia	2f/	vo-
.	.	.	.	.	.	1g\	/O	2d/	-glia
=4-	=4-	=4-	=4-	=4-	=4-	=4-	=4-	=4-	=4-
2.d\	/O	1D	vo-	1A-	.	.	.	2r	.
.	.	.	.	.	.	1f	fe-	1dd	O
4c\	.	.	.	.	.	.	.	.	.
*	*	*	*	*Xlig	*	*	*	*	*
2Bn\	.	0GG	-glia	0G	-glia	.	.	.	.
1c\	fe-	.	.	.	.	2e-\	-ra	1ee-\	fe-
=5-	=5-	=5-	=5-	=5-	=5-	=5-	=5-	=5-	=5-
.	.	.	.	.	.	1g	vo-	.	.
2B-ny\	-ra	.	.	.	.	.	.	2dd\	-ra
1A-	vo-	1r	.	2r	.	2c/	-glia/	1cc	vo-
.	.	.	.	4c\	che	4e-\	che	.	.
.	.	.	.	4d\	ne	4f\	ne	.	.
=6-	=6-	=6-	=6-	=6-	=6-	=6-	=6-	=6-	=6-
2E-/	-glia/	1r	.	4e-\	ro-	4g\	ro-	1b-	-glia
.	.	.	.	8d\	.	8f\	.	.	.
!	!	!	!	!	!	!LO:SIC:v:t=custos f	!	!	!
.	.	.	.	8c\	.	8e-\	.	.	.
!	!	!	!	!	!	!LO:LB:g=original	!	!	!
2r	.	.	.	4d\	.	4f\	.	.	.
.	.	.	.	4e-\	-di e	4g\	-di e	.	.
1r	.	4C/	che	2c\	pa-	2g\	pa-	4e-/	che
.	.	4D/	ne	.	.	.	.	4f/	ne
.	.	4E-\	ro-	1B-\	-ſci	2e-\	-ſci	4g/	ro-
.	.	8D/	.	.	.	.	.	8f/	.
!	!	!	!	!	!	!	!	!LO:SIC:v:t=custos f	!
.	.	8C/	.	.	.	.	.	8e-/	.
=7-	=7-	=7-	=7-	=7-	=7-	=7-	=7-	=7-	=7-
!	!	!	!	!LO:SIC:v:t=custos E	!	!	!	!	!
!	!	!	!	!	!	!	!	!LO:LB:g=original	!
2r	.	4D/	.	.	.	0r	.	4f/	.
!	!	!LO:SIC:v:t=custos C	!	!	!	!	!	!	!
.	.	4E-\	-di e	.	.	.	.	4g/	-d'es
!	!	!LO:LB:g=original	!	!	!	!	!	!	!
!	!	!	!	!LO:LB:g=original	!	!	!	!	!
4G/	che	2C/	pa-	4E-/	/che	.	.	2e-/	pa-
!LO:SIC:v:t=custos B	!	!	!	!	!	!	!	!	!
4A-/	ne	.	.	4F/	ne	.	.	.	.
!LO:LB:g=original	!	!	!	!	!	!	!	!	!
4B-\	ro-	2BB-/	-ſci	4G/	ro-	.	.	1d	-ſci
8A-/	.	.	.	8F/	.	.	.	.	.
8G/	.	.	.	8E-/	.	.	.	.	.
4A-/	.	2r	.	4F/	.	.	.	.	.
4B-\	-di e	.	.	4G/	-di e	.	.	.	.
=8-	=8-	=8-	=8-	=8-	=8-	=8-	=8-	=8-	=8-
2G/	pa-	4G\	che	2E-/	pa-	2r	.	4b-\	che
.	.	4A-\	ne	.	.	.	.	4cc\	ne
2F/	-ſci	4B-\	ro-	2D/	-sci/	2f\	et	4dd\	ro-
.	.	8A-\	.	.	.	.	.	8cc\	.
.	.	8G\	.	.	.	.	.	8b-\	.
2r	.	4A-\	.	1r	.	2f\	ſug-	4cc\	.
.	.	4B-\	-di e	.	.	.	.	4dd\	-di e-
2B-\	[Et	2G\	pa-	.	.	2en\	-g'il	4.b-\	-pa
.	.	.	.	.	.	.	.	8cc\	.
=9-	=9-	=9-	=9-	=9-	=9-	=9-	=9-	=9-	=9-
2B-\	ſug-	1F	-ſci	2r	.	2f\	cor	2dd\	.
2A-/	-g'il	.	.	2F/	quas'	2c/	quas'	4cc\	ſci
.	.	.	.	.	.	.	.	4f/	e
1B-	cor	1r	.	2D/	af-	2d\	af-	2f/	ſe-
.	.	.	.	2G/	-fa-	2B-/	-fa-	2en/	-gu' il-
=10-	=10-	=10-	=10-	=10-	=10-	=10-	=10-	=10-	=10-
2r	.	1r	.	2F/	-ma-	2c/	-ma-	2f/	-lar
2c\	/Et	.	.	2En/	-to	2G/	-to	2r	.
!	!	!	!	!	!	!	!	!LO:SIC:v:t=custos a	!
2A-/	sug-	2r	.	4F/	ver-	2c\	ver-	1cc	qua-
.	.	.	.	4G/	.	.	.	.	.
1c\	-g'il	2F\	et	4A-/	.	2f\	-me	.	.
.	.	.	.	4B-\	.	.	.	.	.
=11-	=11-	=11-	=11-	=11-	=11-	=11-	=11-	=11-	=11-
!	!	!	!	!	!	!	!	!LO:LB:g=original	!
.	.	2F\	ſug-	2.c\	.	1r	.	2a-\	-s'af-
2G/	cor/	2En\	-g'il	.	.	.	.	2g/	-fa-
.	.	.	.	4B-\	.	.	.	.	.
2r	.	2F\	cor	4A-\	.	1c	quas'	2f/	-mo-
.	.	.	.	8G/	.	.	.	.	.
!	!	!	!	!LO:SIC:v:t=custos G	!	!	!	!	!
.	.	.	.	8F/	.	.	.	.	.
!	!	!	!	!LO:LB:g=original	!	!	!	!	!
4r	.	2C/	quas'	2G/	.	.	.	2en/	-to
4G/	quas'	.	.	.	.	.	.	.	.
=12-	=12-	=12-	=12-	=12-	=12-	=12-	=12-	=12-	=12-
!	!	!LO:SIC:v:t=custos D	!	!	!	!	!	!	!
2A-/	af-	2AA-/	af-	1F	-me	2c/	af-	4f/	ver-
.	.	.	.	.	.	.	.	4g/	.
!	!	!LO:LB:g=original	!	!	!	!	!	!	!
2F/	-fa-	2D/	-fa-	.	.	2f\	-fa-	4a-\	.
.	.	.	.	.	.	.	.	4b-\	.
!LO:SIC:v:t=custos G	!	!	!	!	!	!	!	!	!
2G/	-ma	2C/	-ma-	1r	.	2e-ny\	-ma-	2cc\	.
!	!	!	!	!	!	!LO:SIC:v:t=custos e	!	!	!
!LO:LB:g=original	!	!	!	!	!	!	!	!	!
2G/	to	2BBn/	-to	.	.	2d\	-to	2dd\	-me
=13-	=13-	=13-	=13-	=13-	=13-	=13-	=13-	=13-	=13-
!	!	!	!	!	!	!LO:LB:g=original	!	!	!
2G/	ver-	4C/	ver-	2r	.	1e-	uer-	2r	.
.	.	4D\	.	.	.	.	.	.	.
2G/	-me	4E-ny\	.	2c\	e	.	.	2g/	quas'
.	.	4F\	.	.	.	.	.	.	.
1r	.	1G	.	2c\	ſug-	1d	-me	2g/	af-
.	.	.	.	2Bn\	-g'il	.	.	2d/	-fa-
=14-	=14-	=14-	=14-	=14-	=14-	=14-	=14-	=14-	=14-
2r	.	00F	-me	1c	cor	2r	.	1f	-ma-
2c\	quas'	.	.	.	.	2A-/	/quas'	.	.
2A-/	af-	.	.	1r	.	2c/	af-	1f	-to
2d\	-fa-	.	.	.	.	2B-/	-fa-	.	.
=15-	=15-	=15-	=15-	=15-	=15-	=15-	=15-	=15-	=15-
2c\	-ma-	.	.	0r	.	2A-/	-ma-	0f	ver-
2B-\	-to	.	.	.	.	1B-	-to	.	.
1c	ver-	.	.	.	.	.	.	.	.
.	.	.	.	.	.	2A-/	ver-	.	.
=16-	=16-	=16-	=16-	=16-	=16-	=16-	=16-	=16-	=16-
2d\	-me	1BBny-	Ch'a-	2r	.	2B-/	-me/	1f	-me
1d	Ch'a-	.	.	1B-ny	Ch'a-	2f\	Ch'a-	.	.
.	.	1C	-ma-	.	.	1e-	-ma-	1r	.
1c\	-ma-	.	.	1A-\	-ma-	.	.	.	.
=17-	=17-	=17-	=17-	=17-	=17-	=17-	=17-	=17-	=17-
.	.	0D	-ra	.	.	2.d\	-ra	1r	.
2B-\	-ra	.	.	2G/	-ra	.	.	.	.
.	.	.	.	.	.	8c/	.	.	.
.	.	.	.	.	.	8B-/	.	.	.
2.d\	cre-	.	.	1F#X	cre-	2A-/	.	2r	.
.	.	.	.	.	.	1B-/	cre-	1dd\	Ch'a-
4c\	.	.	.	.	.	.	.	.	.
=18-	=18-	=18-	=18-	=18-	=18-	=18-	=18-	=18-	=18-
2B-\	.	1E-	cre-	1G	-ſci	.	.	.	.
!	!	!	!	!	!	!	!	!LO:SIC:v:t=custos b	!
4A-/	.	.	.	.	.	2c/	.	1cc	-ma-
4G/	.	.	.	.	.	.	.	.	.
2F#X/	.	0D	-ſci	1r	.	1d	-ſci	.	.
!	!	!	!	!	!	!	!	!LO:LB:g=original	!
1G/	.	.	.	.	.	.	.	2b-\	-ra
=19-	=19-	=19-	=19-	=19-	=19-	=19-	=19-	=19-	=19-
!LO:SIC:v:t=custos F	!	!	!	!	!	!	!	!	!
.	.	.	.	2r	.	2r	.	1a-	cre-
!LO:LB:g=original	!	!	!	!	!	!	!	!	!
2F#X/	-ſci	.	.	1A-	[Et]	2d\	et	.	.
1r	.	1r	.	.	.	2c/	pur	1f	-ſc'et
.	.	.	.	2B-\	pur	2d\	dol-	.	.
=20-	=20-	=20-	=20-	=20-	=20-	=20-	=20-	=20-	=20-
2r	.	1E-	e	1B-	dol-	2e-\	-ce	1g	pur
2E-/	e	.	.	.	.	2B-/	c'-	.	.
!	!	!	!	!	!	!LO:SIC:v:t=custos c	!	!	!
2E-/	pur	2AA-X/	pur	1.A-X	-ce	1c	-min-	1e-ny	dol-
1E-/	dol-	1AA-/	dol-	.	.	.	.	.	.
=21-	=21-	=21-	=21-	=21-	=21-	=21-	=21-	=21-	=21-
!	!	!	!	!	!	!LO:LB:g=original	!	!	!
.	.	.	.	.	.	1c	-ci	2.e-/	-ce
1E-	-ce	1C	-ce	2G/	co-	.	.	.	.
.	.	.	.	.	.	.	.	4d/	.
.	.	.	.	0G	-min-	2r	.	2c/	.
!	!	!LO:SIC:v:t=custos C	!	!	!	!	!	!	!
2D/	co-	2BBn/	co-	.	.	1G/	co-	2d/	con-
=22-	=22-	=22-	=22-	=22-	=22-	=22-	=22-	=22-	=22-
!	!	!LO:LB:g=original	!	!	!	!	!	!	!
1C	-min-	1C	-min-	.	.	.	.	1e-	-ſu-
.	.	.	.	.	.	1c	-min-	.	.
!	!	!	!	!LO:SIC:v:t=custos E	!	!	!	!	!
1D	-ci	1GG	-ci	1G	-ci	.	.	1d	-mi
.	.	.	.	.	.	2Bn/	-ci	.	.
=23-	=23-	=23-	=23-	=23-	=23-	=23-	=23-	=23-	=23-
!	!	!	!	!LO:LB:g=original	!	!	!	!	!
0r	.	0r	.	1E-	Di-	2r	.	2r	.
.	.	.	.	.	.	2e-\	Di-	2g/	Di
.	.	.	.	1B-	-che	2d\	-che	2f/	che
.	.	.	.	.	.	1e-\	fal-	1g\	fal-
=24-	=24-	=24-	=24-	=24-	=24-	=24-	=24-	=24-	=24-
0r	.	0r	.	1B-	fal-	.	.	.	.
.	.	.	.	.	.	4d\	-ſo	4f/	-ſo
.	.	.	.	.	.	4c\	pia-	4e-/	pia-
.	.	.	.	2B-\	-ſo	4d\	-cer	4f/	-cer
.	.	.	.	.	.	4c\	cir-	4e-/	cir-
.	.	.	.	2B-\	pia-	4d\	-cod	4f/	-cond
!	!	!	!	!	!	!	!	!LO:SIC:v:t=custos f	!
.	.	.	.	.	.	4e-\	e	4g/	et
=25-	=25-	=25-	=25-	=25-	=25-	=25-	=25-	=25-	=25-
!	!	!	!	!	!	!	!	!LO:LB:g=original	!
2r	.	2r	.	1B-	-cer	1.d	fa-	2f/	fa-
4r	.	4r	.	.	.	.	.	1f	-ſci
4B-\	Le	4BB-ny/	Le	.	.	.	.	.	.
4A-\	tue	4D/	tue	1r	.	.	.	.	.
4B-\	men-	4BB-/	men-	.	.	.	.	.	.
2G/	-zo-	2E-\	-zo-	.	.	2B-ny/	-ſci	2r	.
=26-	=26-	=26-	=26-	=26-	=26-	=26-	=26-	=26-	=26-
2Fny/	-gne	2BB-/	-gne	4r	.	4r	.	4r	.
.	.	.	.	4B-\	Le	4d\	Le	4f/	Le
2r	.	2r	.	4A-\	tue	4c\	tue	4a-\	tue
.	.	.	.	4B-\	men-	4d\	men-	4f/	men-
1r	.	1r	.	2G/	-zo-	2en\	-zo-	2b-\	-zo-
.	.	.	.	2Fny/	-gne	2f\	-gne	4.a-\	-gne
.	.	.	.	.	.	.	.	8g/	.
=27-	=27-	=27-	=27-	=27-	=27-	=27-	=27-	=27-	=27-
2r	.	1BB-	Di	2r	.	00r	.	00f	.
2B-\	Di	.	.	2d\	Di-	.	.	.	.
!LO:SIC:v:t=custos B	!	!	!	!	!	!	!	!	!
2A-/	che	1F	che	2c\	-che	.	.	.	.
!LO:LB:g=original	!	!	!	!	!	!	!	!	!
1B-\	fal-	.	.	1d\	fal-	.	.	.	.
=28-	=28-	=28-	=28-	=28-	=28-	=28-	=28-	=28-	=28-
.	.	1F	fal-	.	.	.	.	.	.
4A-/	-ſo	.	.	4c\	-ſo	.	.	.	.
4G/	pia-	.	.	4B-\	pia-	.	.	.	.
4A-/	-cer	2F\	-ſo	4c\	-cer	.	.	.	.
4G/	cir-	.	.	4B-\	cir-	.	.	.	.
4A-/	-con-	2F\	pia-	4c\	-con-	.	.	.	.
!	!	!	!	!LO:SIC:v:t=custos c	!	!	!	!	!
4B-\	-d'e	.	.	4d\	-d'e	.	.	.	.
=29-	=29-	=29-	=29-	=29-	=29-	=29-	=29-	=29-	=29-
!	!	!	!	!LO:LB:g=original	!	!	!	!	!
4A-/	fa-	4F\	-cer	2c\	fa-	1r	.	4r	.
4G/	-ſci	4E-\	cir-	.	.	.	.	4g/	cir-
4r	.	4F\	-con-	4c\	-ſci	.	.	4f/	-cond
!	!	!LO:SIC:v:t=custos F	!	!	!	!	!	!	!
4G/	cir-	4G\	-d'e	4B-\	cir-	.	.	4d/	et
!	!	!LO:LB:g=original	!	!	!	!	!	!	!
4A-/	-con-	1F	fa-	4c\	-con-	2r	.	1f	fa-
4B-\	-di e	.	.	4d\	-di e	.	.	.	.
2A-/	fa-	.	.	2c\	fa-	4r	.	.	.
!	!	!	!	!	!	!LO:SIC:v:t=custos A	!	!	!
.	.	.	.	.	.	4F/	Le	.	.
=30-	=30-	=30-	=30-	=30-	=30-	=30-	=30-	=30-	=30-
!	!	!	!	!	!	!LO:LB:g=original	!	!	!
2A-/	-ſci	2F\	-ſci	2c\	-ſci	4A-/	tue	1f	-ſca
.	.	.	.	.	.	4F/	me(n)-	.	.
4r	.	4r	.	4r	.	2B-/	-zo-	.	.
4d\	Le	4BB-/	Le	4B-\	Le	.	.	.	.
4d\	tue	4D/	tue	4A-\	tue	2F/	-gne	2r	.
!LO:SIC:v:t=custos c	!	!	!	!	!	!	!	!	!
4d\	men-	4BB-/	me(n)-	4B-\	me(n)-	.	.	.	.
!LO:LB:g=original	!	!	!	!	!	!	!	!	!
2c\	-zo-	2E-\	-zo-	2G/	-zo-	2r	.	2g/	e'l
=31-	=31-	=31-	=31-	=31-	=31-	=31-	=31-	=31-	=31-
1d	-gne	2D/	-gn'e'l	2A-/	-gn'e'l	2r	.	2f#X/	noſ-
.	.	1G	noſ-	2B-\	no-	2d\	e'l	2g/	-tro
1r	.	.	.	2d\	-ſtro	2g\	no-	4b-\	ve-
!	!	!	!	!	!	!	!	!LO:SIC:v:t=custos a	!
.	.	.	.	.	.	.	.	4b-\	-ro in
!	!	!	!	!	!	!	!	!LO:LB:g=original	!
.	.	2F\	-tro	2A-/	ve-	2c/	-ſtro	2.a-\	er
=32-	=32-	=32-	=32-	=32-	=32-	=32-	=32-	=32-	=32-
1r	.	2E-\	ver'-	1B-	-ro i-	2e-ny\	ver'	.	.
.	.	.	.	.	.	.	.	4g/	.
.	.	2G\	-i-	.	.	2d\	i-	2.g/	.
2r	.	2D/	-ner-	1A-	-ner-	2d\	-ner-	.	.
.	.	.	.	.	.	.	.	8f#X/	.
.	.	.	.	.	.	.	.	8en/	.
2d\	Co-	4D/	-me	.	.	2A-/	-me	2f#X/	.
.	.	4D/	Co-	.	.	.	.	.	.
=33-	=33-	=33-	=33-	=33-	=33-	=33-	=33-	=33-	=33-
4B-\	-me	4E-\	-me	2G/	-me	4r	.	2g/	me
4G/	ſo-	4E-\	ſo-	.	.	4B-/	Co-	.	.
2d\	-uen-	2D/	-uen-	4r	.	4B-/	-me	2r	.
!	!	!	!	!LO:SIC:v:t=custos e	!	!	!	!	!
.	.	.	.	4d\	Co-	4A-/	ſo-	.	.
!	!	!	!	!LO:LB:g=original	!	!	!	!	!
4G/	-te	2C/	-te	4e-\	-me	2c/	-uen-	2r	.
4c\	/Co-	.	.	4e-\	ſo-	.	.	.	.
4c\	-me	4r	.	2d\	-uen-	2F/	-te	4r	.
!	!	!LO:SIC:v:t=custos E	!	!	!	!	!	!	!
4B#\	so-	4G\	co-	.	.	.	.	4d/	Co-
=34-	=34-	=34-	=34-	=34-	=34-	=34-	=34-	=34-	=34-
!	!	!LO:LB:g=original	!	!	!	!	!	!	!
2c\	-ven-	4E-\	-me	2G/	-te	4r	.	4e-ny/	-me
.	.	4C/	ſo-	.	.	4c/	/Co-	4e-/	ſo-
2d\	-te	2G\	-uen-	4r	.	4c/	-me	2d/	-uen-
.	.	.	.	4G/	/Co-	4Bn/	so-	.	.
4r	.	2C/	-te	4E-/	-me	2c/	-ven-	2g/	-te
4c\	co-	.	.	4C/	so-	.	.	.	.
4c\	-me	4r	.	2G/	-ven-	2d\	-te/	4r	.
4Bn\	so-	4G\	/co-	.	.	.	.	4d/	/Co-
=35-	=35-	=35-	=35-	=35-	=35-	=35-	=35-	=35-	=35-
2c\	-ven-	4E-\	-me	2C/	-te/	4r	.	4e-/	-me
.	.	4C/	so-	.	.	4g\	co-	4e-/	so-
2A-/	-te/	2D/	-ven-	2r	.	4g\	-me	1d	-ven-
!	!	!	!	!	!	!LO:SIC:v:t=custos g	!	!	!
.	.	.	.	.	.	4f#X\	ſo-	.	.
!	!	!	!	!	!	!LO:LB:g=original	!	!	!
2r	.	1GG	-te/	1.B-	Laſ-	2g\	-ue(n)-	.	.
1d\	Laſ-	.	.	.	.	2G/	-te	2g/	-te/
=36-	=36-	=36-	=36-	=36-	=36-	=36-	=36-	=36-	=36-
.	.	1G	Laſ-	.	.	1r	.	1.g	laſ-
2d\	-ſo	.	.	4A-/	.	.	.	.	.
.	.	.	.	4G/	.	.	.	.	.
1r	.	1D	-ſo	2B-\	-ſo	0d	Laſ-	.	.
.	.	.	.	2A-/	in-	.	.	2f#X/	-ſe
=37-	=37-	=37-	=37-	=37-	=37-	=37-	=37-	=37-	=37-
0r	.	2r	.	2B-\	-gan-	.	.	1r	.
.	.	2D/	in-	2F/	-n'et	.	.	.	.
.	.	2E-\	-gan-	2G/	vin-	1c	-ſo	2r	.
!	!	!	!	!	!	!	!	!LO:SIC:v:t=custos b	!
.	.	2F\	-nte	2A-/	-ci	.	.	2a-\	in
=38-	=38-	=38-	=38-	=38-	=38-	=38-	=38-	=38-	=38-
!LO:SIC:v:t=custos c	!	!	!	!	!	!	!	!	!
!	!	!	!	!	!	!	!	!LO:LB:g=original	!
1d	laſ-	2G\	vin-	1r	.	2r	.	2b-\	gan-
.	.	2D/	-ci	.	.	2d\	in-	2fny/	-n'et
!LO:LB:g=original	!	!	!	!	!	!	!	!	!
1c	-ſo	1r	.	2r	.	2e-\	-ga-	2g/	via
.	.	.	.	2A-/	in-	2fny\	-n'e	2.f/	.
=39-	=39-	=39-	=39-	=39-	=39-	=39-	=39-	=39-	=39-
1.B-ny	laſ-	1G	Laſ-	2B-\	-gan-	2g\	vin-	.	.
.	.	.	.	.	.	.	.	8en/	.
.	.	.	.	.	.	.	.	8d/	.
!	!	!	!	!LO:SIC:v:t=custos d	!	!	!	!	!
.	.	.	.	2c\	-ni e	2g\	-ci	2en/	.
!	!	!	!	!LO:LB:g=original	!	!	!	!	!
.	.	1F	-ſo	2d\	uin-	1r	.	0f	ci
2A-/	-s'in-	.	.	2c\	-ci	.	.	.	.
=40-	=40-	=40-	=40-	=40-	=40-	=40-	=40-	=40-	=40-
2B-\	-gan-	2r	.	0r	.	1d	in-	.	.
!	!	!LO:SIC:v:t=custos E	!	!	!	!	!	!	!
2F/	-ni e	2D/	in	.	.	.	.	.	.
!	!	!LO:LB:g=original	!	!	!	!	!	!	!
1G	vin-	2E-\	gan-	.	.	2B-ny/	-ga-	2r	.
.	.	2C/	-ni e	.	.	2c/	-n'e	1g\	laſ-
=41-	=41-	=41-	=41-	=41-	=41-	=41-	=41-	=41-	=41-
1d	-ci	1D	uin-	2r	.	2B-/	uin-	.	.
.	.	.	.	2D/	/in-	4.A-/	-ci	2f#X/	-ſo
.	.	.	.	.	.	8B-/	.	.	.
2r	.	1AA-	-ci	2En/	-gan-	1c	.	1a-	laſ-
2A-/	in-	.	.	2F/	-ni	.	.	.	.
=42-	=42-	=42-	=42-	=42-	=42-	=42-	=42-	=42-	=42-
2B-\	-gan-	1r	.	2G/	vin-	0r	.	2g/	-ſo
2c\	-ni e	.	.	2A-/	-ci/	.	.	2.fny/	in-
1d	uin-	1D	laſ-	2r	.	.	.	.	.
.	.	.	.	.	.	.	.	4g\	-gan
.	.	.	.	1F/	laſ-	.	.	4a-\	.
.	.	.	.	.	.	.	.	4b-\	.
=43-	=43-	=43-	=43-	=43-	=43-	=43-	=43-	=43-	=43-
1G	-vi	1C	-ſo	.	.	1g	in-	2.cc\	.
.	.	.	.	2En/	-ſo in-	.	.	.	.
.	.	.	.	.	.	.	.	4b-\	.
1r	.	1r	.	2F/	-gan-	2f\	-ga-	2a-\	.
.	.	.	.	2G/	-ni et	2d\	-n'e	1g\	n'et
=44-	=44-	=44-	=44-	=44-	=44-	=44-	=44-	=44-	=44-
1r	.	1r	.	0A-	uin-	2c#X/	uin-	.	.
.	.	.	.	.	.	2.d\	.	2f/	vin-
1A-	in-	1AA-	in-	.	.	.	.	1en	-ci
.	.	.	.	.	.	8c#X/	.	.	.
.	.	.	.	.	.	8Bn/	.	.	.
.	.	.	.	.	.	2c#X/	.	.	.
=45-	=45-	=45-	=45-	=45-	=45-	=45-	=45-	=45-	=45-
2F/	-gan-	2BB-/	-gan-	00.D	-ci.	00.d	-ci.	2r	.
2A-/	-ni e	2FF/	-ni e	.	.	.	.	2a-\	et
1G	uin-	1GG	uin-	.	.	.	.	1b-	vin-
=46-	=46-	=46-	=46-	=46-	=46-	=46-	=46-	=46-	=46-
00F#X	-ci.	00D	-vi	.	.	.	.	00a-	-ci.
=47-	=47-	=47-	=47-	=47-	=47-	=47-	=47-	=47-	=47-
.	.	.	.	.	.	.	.	.	.
=-	=-	=-	=-	=-	=-	=-	=-	=-	=-
*-	*-	*-	*-	*-	*-	*-	*-	*-	*-
!!!system-decoration: s1,s2,s3,s4,s5
!!!ENC: Andrzej Gręziak
!!!END: 2022-06-11
!!!ENC: Urszula Świątek
!!!END: 2022-07-22
